X:192
T:Singleton's Slip. (p)1665.PLFD.192
M:4/4
L:1/8
Q:1/2=100
S:Playford, Dancing Master,2nd Supp. to 3rd Ed.,1665
O:England
H:166
Z:Chris Partington
K:Bb
F2|B2c2d2e2|f2edc2ef|gfedc3B|B6:|
|:ga|baga baga|bagf gabf|gfed edcB|
c6ef|g2def2de|f2edc2f2|gfedc3B|B6:|
